Numix/24x24/status/battery-090-charging.svg

<?xml version="1.0" encoding="UTF-8" standalone="no"?>
<svg
   xmlns:dc="http://purl.org/dc/elements/1.1/"
   xmlns:cc="http://creativecommons.org/ns#"
   xmlns:rdf="http://www.w3.org/1999/02/22-rdf-syntax-ns#"
   xmlns:svg="http://www.w3.org/2000/svg"
   xmlns="http://www.w3.org/2000/svg"
   xmlns:sodipodi="http://sodipodi.sourceforge.net/DTD/sodipodi-0.dtd"
   xmlns:inkscape="http://www.inkscape.org/namespaces/inkscape"
   width="24"
   viewBox="0 0 24 24"
   height="24"
   id="svg2"
   version="1.1"
   inkscape:version="0.91 r"
   sodipodi:docname="battery-090-charging.svg">
  <metadata
     id="metadata14">
    <rdf:RDF>
      <cc:Work
         rdf:about="">
        <dc:format>image/svg+xml</dc:format>
        <dc:type
           rdf:resource="http://purl.org/dc/dcmitype/StillImage" />
        <dc:title></dc:title>
      </cc:Work>
    </rdf:RDF>
  </metadata>
  <defs
     id="defs12" />
  <sodipodi:namedview
     pagecolor="#ffffff"
     bordercolor="#666666"
     borderopacity="1"
     objecttolerance="10"
     gridtolerance="10"
     guidetolerance="10"
     inkscape:pageopacity="0"
     inkscape:pageshadow="2"
     inkscape:window-width="1366"
     inkscape:window-height="747"
     id="namedview10"
     showgrid="false"
     inkscape:zoom="6.7045454"
     inkscape:cx="-15.241487"
     inkscape:cy="4.4439855"
     inkscape:window-x="0"
     inkscape:window-y="21"
     inkscape:window-maximized="1"
     inkscape:current-layer="svg2" />
  <path
     style="opacity:0.4;fill:#ececec;fill-opacity:1"
     d="m 9.0000001,4 0,2 -3,0 0,14 L 18,20 18,6 15,6 15,4 9.0000001,4 Z M 14,7 l -1,5 3,0 -6,7 1,-5 L 8.0000001,14 14,7 Z"
     id="path6"
     inkscape:connector-curvature="0" />
  <path
     style="opacity:1;fill:#ececec;fill-opacity:1"
     d="m 8.9999999,5.5996094 0,0.4003906 -3,0 0,14 L 18,20 18,6 l -3,0 0,-0.4003906 -6.0000001,0 z M 14,7 13,12 16,12 9.9999999,19 11,14 7.9999999,14 14,7 Z"
     id="path6-8"
     inkscape:connector-curvature="0" />
</svg>

<?xml version="1.0" encoding="UTF-8" standalone="no"?>
<svg
   xmlns:dc="http://purl.org/dc/elements/1.1/"
   xmlns:cc="http://creativecommons.org/ns#"
   xmlns:rdf="http://www.w3.org/1999/02/22-rdf-syntax-ns#"
   xmlns:svg="http://www.w3.org/2000/svg"
   xmlns="http://www.w3.org/2000/svg"
   xmlns:sodipodi="http://sodipodi.sourceforge.net/DTD/sodipodi-0.dtd"
   xmlns:inkscape="http://www.inkscape.org/namespaces/inkscape"
   width="24"
   viewBox="0 0 24 24"
   height="24"
   id="svg2"
   version="1.1"
   inkscape:version="0.91 r"
   sodipodi:docname="battery-090-charging.svg">
  <metadata
     id="metadata14">
    <rdf:RDF>
      <cc:Work
         rdf:about="">
        <dc:format>image/svg+xml</dc:format>
        <dc:type
           rdf:resource="http://purl.org/dc/dcmitype/StillImage" />
        <dc:title></dc:title>
      </cc:Work>
    </rdf:RDF>
  </metadata>
  <defs
     id="defs12" />
  <sodipodi:namedview
     pagecolor="#ffffff"
     bordercolor="#666666"
     borderopacity="1"
     objecttolerance="10"
     gridtolerance="10"
     guidetolerance="10"
     inkscape:pageopacity="0"
     inkscape:pageshadow="2"
     inkscape:window-width="1366"
     inkscape:window-height="747"
     id="namedview10"
     showgrid="false"
     inkscape:zoom="6.7045455"
     inkscape:cx="8.0897156"
     inkscape:cy="7.5660696"
     inkscape:window-x="0"
     inkscape:window-y="21"
     inkscape:window-maximized="1"
     inkscape:current-layer="svg2" />
  <path
     style="opacity:0.4;fill:#ececec;fill-opacity:1"
     d="M 9,4 9,6 6,6 6,20 18,20 18,6 15,6 15,4 9,4 Z m 5,3 -1,5 3,0 -6,7 1,-5 -3,0 6,-7 z"
     id="path6"
     inkscape:connector-curvature="0" />
  <path
     style="fill:#ececec;fill-opacity:1"
     d="M 6,6 6,20 18,20 18,6 6,6 Z m 8,1 -1,5 3,0 -6,7 1,-5 -3,0 6,-7 z"
     id="path8"
     inkscape:connector-curvature="0" />
</svg>
